packages/components/icon/src/assets/icons/create-invoice.svg

<svg width="24" height="24" viewBox="0 0 24 24" fill="currentColor" xmlns="http://www.w3.org/2000/svg">
<path fill-rule="evenodd" clip-rule="evenodd" d="M12.1193 3.67896H3.68654V18.7896H9.46898V20.4685H3.68654C2.75641 20.4685 2 19.7155 2 18.7896V3.67896C2 2.75385 2.75641 2 3.68654 2H13.3116L17.1789 5.84985V9.13557H15.4923V7.03688H12.1193V3.67896ZM5.3718 9.55532H10.6724V11.2343H5.3718V9.55532ZM5.3718 12.9133H8.98583V14.5923H5.3718V12.9133ZM16.1553 10.3648C19.3834 10.3648 21.9992 12.9689 21.9992 16.1824C21.9992 19.3959 19.3834 22 16.1553 22C12.9273 22 10.3114 19.3959 10.3114 16.1824C10.3114 12.9689 12.9273 10.3648 16.1553 10.3648ZM19.6208 15.8914V16.4593C19.6208 16.7364 19.3981 16.9718 19.1199 16.9718H17.4363C17.158 16.9718 16.9354 17.1934 16.9354 17.4705V19.1465C16.9354 19.4235 16.6988 19.6451 16.4205 19.6451H15.8501C15.5718 19.6451 15.3492 19.4235 15.3492 19.1465V17.4705C15.3492 17.1934 15.1126 16.9718 14.8344 16.9718H13.1647C12.8725 16.9718 12.6499 16.7364 12.6499 16.4593V15.8914C12.6499 15.6144 12.8725 15.3928 13.1647 15.3928H14.8344C15.1126 15.3928 15.3492 15.1573 15.3492 14.8803V13.2042C15.3492 12.9272 15.5718 12.7056 15.8501 12.7056H16.4205C16.6988 12.7056 16.9354 12.9272 16.9354 13.2042V14.8803C16.9354 15.1573 17.158 15.3928 17.4363 15.3928H19.1199C19.3981 15.3928 19.6208 15.6144 19.6208 15.8914Z" fill="currentColor"/>
</svg>

<svg viewBox="0 0 24 24" fill="currentColor" xmlns="http://www.w3.org/2000/svg"><path fill-rule="evenodd" clip-rule="evenodd" d="M12.12 3.679H3.686v15.11h5.782v1.68H3.687c-.93 0-1.687-.754-1.687-1.68V3.68C2 2.754 2.756 2 3.687 2h9.625l3.867 3.85v3.286h-1.687v-2.1H12.12V3.68ZM5.371 9.555h5.3v1.68h-5.3v-1.68Zm0 3.358h3.614v1.68H5.372v-1.68Zm10.783-2.548c3.228 0 5.844 2.604 5.844 5.817C22 19.396 19.383 22 16.155 22s-5.844-2.604-5.844-5.818c0-3.213 2.616-5.817 5.844-5.817Zm3.466 5.526v.568a.51.51 0 0 1-.501.513h-1.684c-.278 0-.5.221-.5.498v1.677a.51.51 0 0 1-.515.498h-.57a.498.498 0 0 1-.502-.498V17.47a.51.51 0 0 0-.515-.5h-1.67a.512.512 0 0 1-.514-.512v-.568a.5.5 0 0 1 .515-.498h1.67a.522.522 0 0 0 .514-.513v-1.676c0-.277.223-.498.501-.498h.57a.51.51 0 0 1 .515.498v1.676a.51.51 0 0 0 .501.513h1.684c.278 0 .5.221.5.498Z"/></svg>
